X:1
T:All Things in Jesus
T:All Things in Jesus
T:Harry Dixon Loes
T:Harry Dixon Loes, 1915
T:Public Domain Courtesy of the Cyber Hymnal™
T:Public Domain Courtesy of the Cyber Hymnal™
C:Harry Dixon Loes
Z:Public Domain
Z:Courtesy of the Cyber Hymnal™
%%score ( 1 2 ) ( 3 4 )
L:1/8
Q:1/4=160
M:6/4
K:Ab
V:1 treble 
V:2 treble 
V:3 bass 
V:4 bass 
V:1
 [CE]2 [CF]2 [CG]2 [CA]2 [CB]2 [CA]2 | [DA]2 [DG]3 [DF] [DE]6 | %2
w: 1.~Friends all a- round me are|try- ing to find|
w: 2.~Some car- ry bur- dens whose|weight has for years|
w: 3.~No o- ther name thrills the|joy chords with- in,|
w: 4.~Je- sus is all this poor|world needs to- day.|
 [DE]2 [DG]2 [CA]2 [DB]2 [Ec]2 [DB]2 | [CB]2 [CA]3 [=B,F] [CE]6 | %4
w: What the heart yearns for, by|sin un- der- mined;|
w: Crushed them with sor- row and|blind- ed with tears.|
w: And through none else is re-|mis- sion of sin.|
w: Blind- ly they strive, for sin|dark- ens their way.|
 [CE]2 [CF]2 [CG]2 [CA]2 [CB]2 [CA]2 | [DA]2 [DG]3 [CA] [EB]6 | %6
w: I have the sec- ret, I|know where ’tis found:|
w: Yet One stands rea- dy to|help them just now,|
w: He knows the pain of the|heart sore- ly tried.|
w: O to draw back the grim|cur- tains of night,|
 [=DB]2 [Dc]2 [DB]2 [EB]2 [Ec]2 [EB]2 | [=DB]2 [DA]2 [DF]2 (E2 e4) || %8
w: On- ly true plea- sures in|Je- sus a- bound *|
w: If they will hum- bly in|pen- i- tence bow. *|
w: Both need and want will by|Him be sup- plied. *|
w: One glimpse of Je- sus and|all will be bright! *|
"^Refrain" [ce]2 [Bd]2 [Ac]2 [_Ge]2 [Fd]3 [_FA] | [Ec]6 [CA]6 | [DB]2 [Ec]2 [DB]2 E6 | %11
w: |||
w: All that I want is in|Je- sus.|He sat- is- fies,|
w: |||
w: |||
 [Ec]2 [Fd]2 [Ec]2 [CA]6 x4 | [Ac]2 [GB]2 [_Gc]2 [Fe]2 [Fd]3 [_FA] | [Ec]6 !fermata![Ae]6 | %14
w: |||
w: joy He sup- plies;|Life would be worth- less with-|out Him;|
w: |||
w: |||
 [Fe]2 [Fd]2 [_FB]2 [Ec]2 [CA]2 [DB]2 | [CA]12 |] %16
w: ||
w: All things in Je- sus I|find.|
w: ||
w: ||
V:2
 x12 | x12 | x12 | x12 | x12 | x12 | x12 | x8 (G2 =d2) || x12 | x12 | x6 (D4 E2) | x16 | x12 | %13
 x12 | x12 | x12 |] %16
V:3
 [A,,A,]2 [A,,A,]2 [A,,A,]2 [A,,E,]2 [A,,E,]2 [A,,E,]2 | [B,,E,]2 [E,B,]3 [E,A,] [E,G,]6 | %2
w: ~ ~ ~ ~ ~ ~|~ ~ ~ ~|
 [E,G,]2 [E,B,]2 [E,A,]2 [E,G,]2 [E,G,]2 E,2 | [A,,E,]2 [A,,E,]3 [A,,=D,] (E,2 A,4) | %4
w: ~ ~ ~ ~ ~ ~|~ ~ ~ ~ *|
 [A,,A,]2 [A,,A,]2 [A,,A,]2 [A,,E,]2 [A,,E,]2 [A,,E,]2 | [B,,E,]2 [E,B,]3 [E,A,] [E,G,]6 | %6
w: ~ ~ ~ ~ ~ ~|~ ~ ~ ~|
 [F,A,]2 [F,A,]2 [B,,A,]2 [E,G,]2 [E,G,]2 [E,G,]2 | [B,,F,]2 [B,,F,]2 [B,,A,]2 G,2 B,4 || %8
w: ~ ~ ~ ~ ~ ~|~ ~ ~ ~ ~|
 A,2 A,2 A,2 [C,A,]2 [D,A,]3 [D,A,] | A,6 z4 A,2 | %10
w: ~ ~ ~ ~ ~ ~|Je- sus,|
 [E,G,]2 [E,G,]2 [E,G,]2 [E,G,]2 [F,A,]2 [G,B,]2 | A,2 A,2 A,2 A,6 E,2 C,2 | %12
w: in Je- sus, ~ ~ ~|~ with the ~ ~ ~|
 [A,,E]2 [E,E]2 A,2 [D,A,]2 [D,A,]3 [D,A,] | A,6 z4 C,2 | %14
w: ~ free- ly ~ ~ ~|~ ~|
 [D,A,]2 [D,A,]2 [D,A,]2 [E,A,]2 E,2 [E,G,]2 | [A,,A,]12 |] %16
w: without Him, without Him * *||
V:4
 x12 | x12 | x12 | x6 A,,6 | x12 | x12 | x12 | x6 E,6 || x12 | A,,2 C,2 E,2 A,6 | x12 | x6 A,2 x8 | %12
 x12 | (A,,2 C,2 E,2) A,6 | x12 | x12 |] %16

